X:1
T:Funeral Thought, 86.86.86
T:Funeral Thought, 86.86.86
T:A Compilation of Genuine Church Music, 1847
T:Public Domain Courtesy of the Cyber Hymnal™
C:A Compilation of Genuine Church Music, 1847
Z:Public Domain
Z:Courtesy of the Cyber Hymnal™
%%score ( 1 2 ) ( 3 4 )
L:1/8
Q:1/4=110
M:4/4
K:D
V:1 treble 
V:2 treble 
V:3 bass 
V:4 bass 
V:1
 [FB]4 | F2 [F^A]2 [GB]3 [Gd] | [Ac]2 (B^A) [EB]2 Bd | [Ac]2 ([Bd][GB]) [FA]2 F2 | [FB]6 [Ac]2 | %5
 [Fd]2 [FB]2 F2 [F^A]2 | [DB]2 (Bc) ([Dd][Ec]) [FB]2 | (ec) [E^A]2 ([FB][Ec]) [DB][CA] | %8
 [DF]6 [Fc]2 | [Dd]3 [DB] [Df]2 [Dd]2 | [Ce]3 [Cc] ([CA][DB]) [Ec]2 | [Ff]3 [Ae] [Fc]2 (B^A) | %12
 [FB]4 |] %13
V:2
 x4 | F2 x6 | x2 F2 x E2 x | x6 F2 | x8 | x4 F2 x2 | x2 D2 x4 | E2 x6 | x8 | x8 | x8 | x6 F2 | %12
 x4 |] %13
V:3
 B,4 | [A,C]2 [F,C]2 [D,D]3 [E,B,] | [F,C]2 [F,D]2 [E,E]2 [E,E]2 | %3
 [F,C]2 ([D,D][E,E]) [F,F]2 (C^A,) | [B,,B,]6 F,2 | D,2 D,2 D,2 D,2 | G,2 G,2 B,2 x2 | A,2 G,2 x4 | %8
 F,6 (CA,) | B,3 B, B,2 [B,D]2 | [A,E]3 [A,E] [A,E]2 A,2 | [F,C]3 [F,E] [F,F]2 [F,C]2 | [B,,B,]4 |] %13
V:4
 B,4 | x8 | x8 | x6 F,2 | x6 F,2 | D,2 D,2 D,2 D,2 | G,2 G,2 (G,A,) B,2 | A,2 (DC) (B,A,) x2 | %8
 F,6 F,2 | B,3 B, B,2 x2 | x6 A,2 | x8 | x4 |] %13

